X:13
T:WMNSWRK3- The Highway to Edinburgh (Woman's Work/Black Eagle)
S:Oswald's CPC4
Q:1/4=120
L:1/8
M:C
K:Gm
F|D2 F>G F3 G|BG FD F3F|D2G>A G2 b>g|f/g/f/d/ f/d/c/B/ G3F|\
D2F>G F3G|B/G/F G/F/D F3B|G2FGB2cd|c/d/f/d/ "tr"c>B G3::B|\
B2c>d f3g|f/d/c/B/ cd f3f|d2g>a g3a|gf ba "tr"g3f|\
f2g>a {ga}b3g|fd e/d/c/B/ B3B|c/B/d/d/ fg f<d"tr"c>B|\
B/c/d "tr"c>B G3:|]

